X:265
T:Steirer (63.)
C:traditionell
A:Salzkammergut
S:MIDI erhalten von Christian Amon. Nach einer kopie im besitz von Johann Stoeckl eines manuscriptes. Stoeckl(zitiert von Amon): "diese sammlung wurde 1935 im hause der familie Hohenlohe-Schillingfuerst gefunden. Sie wurde von einem der beiden brueder Steinegger 1866 verfasst. Die originale sind im Ausseer Kammerhofmuseum".
M:3/4
L:1/8
K:G
V:1
dB |\
c2 aB ca | B2 gd Bg | ca fd df | g2 Bd gB |\
c2 aB ca | B2 gd Bg | ca fd df | g4 |*
V:2
gd |\
e2 c'e ec' | d2 bd db | dc' af fa | b2 dg bd |\
e2 c'e ec' | d2 bd db | dc' af fa | b4 |*
